!!!COM: Jules Massenet
!!!CNT: Francais
!!!TXO: Francais
!!!OTL: Voici que les grands lys
!!!LYR: Armand Silvestre
!!!OPR: Poe^me d'Avril
!!!ONM: No. 3
!!!ENC: Jacob Pegg
!!!YOR: Romantic French Song 1830-1870 - David Tunley, ed.,
!!!YOR: New York: Garland Publishing, Inc., 1995, Vol. 6
!!!ODT: 1866/
!!NB: Vocal melody and text only encoded.
!!NB: First instance of melodic material only encoded.
**kern	**silbe
*clef G2	*
*k[b-e-a-]	*
*M4/4	*
!!created: 8/22/03 14:28
!!proofed and posted: 12/13/03 23:05
!!edit time: 19 min.
=8	=8
4r	.
8r	.
{8b-	{Voi-
8b-	-ci
8ee-	que
8dd	les
8b-	grands
=9	=9
4a-	lys
8.g	ont
16a-	ve^-
4b-	-tu
8.a-	leur
16g	blan-
=10	=10
4.g}	-cheur,}
{8g	{sur
8g	les
8cc	ga-
8b-	-zons
8g	trem-
=11	=11
4f	-blants
8.e-	l'aube
16f	e/-
4g	-tend
8.f	sa
16e-	frai-
=12	=12
2e-}	-cheur;}
8r	.
{8f	{c'est
8a-	le
8cc	prin-
=13	=13
[2a-	-temps!
8a-]}	|}
{8a-	{c'est
8cc	le
8ff	ma-
=14	=14
[1ff	-tin!
=15	=15
8ff]}	|}
8r	.
{12a-	{Dou-
12b-	-ble
12cc	jeu-
(4cc	-nes-
4d)	|
=16	=16
4e-}	-se!}
4r	.
2r	.
=17	=17
1r	.
=18	=18
4r	.
8r	.
{8b-	{Ma
8cc-	mie
8b-	en
8a-	s'e/-
8g-	-veil-
=19	=19
8.g-	-lant
16f-	m'a
4a-}	dit:}
8r	.
{8b-	{le
8cc-	beau
8dd-	so-
=20	=20
2..ee-}	-leil!}
8r	.
=21	=21
4r	.
8r	.
{8cc-	{le
8b-	temps
8b-	est
8.b-	donc
16a-	ve-
=22	=22
4gn	-nu
8f	que
8gn	tout
4b-	char-
8.f	-me
16f	re-
=23	=23
4g	-nais-
4g}	-se,}
8r	.
{8a-	{Par-
8b-	-tout
8ccn	des
=24	=24
[2b-	chants!
8b-]}	|}
{8a-	{Par-
8cc	-tout
8ee-	des
=25	=25
2dd}	fleurs!}
4r	.
{(12dd	{Dou-
12cc	-ble
12b-)	re/-
=26	=26
1b-}	-veil!}
!!27-31 predominantly a restatement of the melody in mm. 8-12
=32	=32
4r	.
{8f	{sur
8g	son
2b-	front
=33	=33
8a-	et
8a-	sur
8.b-	ses
16cc	che-
[2ee-	-veux
=34	=34
2ee-]}	|}
4r	.
{8.ee-	{sur
16bn	son
=35	=35
(8bn	front
8cc)}	|}
8r	.
{8b-	{et
(8b-	sur
8a-)	|
8g	ses
8f	che-
=36	=36
2.e-}	-veux!}
4r	.
=37	=37
4r	.
{8b-	{Dou-
16.d	-ble
32d	tre/-
4e-}	-sor!}
4r	.
*-	*-
